X: 1
T: Shoo Fly
R: reel
Z: 2012 John Chambers <jc:trillian.mit.edu>
B: the Portland Collection v.1 p.184
M: C|
L: 1/8
K: D
AB |\
"D"d4 dBAB | d2 d4 AB | d2d2 BAFD | "A7"E3F E2A2 | c4 cBAB |
"A7"c3B c2B2 |1 A2A2 B2A2 | "D"F4 F2 :|2 "A7"A2A2 BAcA | "D"d3c d2 ||
|: e2 |\
"D"f2e2 d2ef | "G"g2f2 e2e2- | "A7"e2d2 c2e2 | "D"fgfe d2e2 |
"D"f2e2 d2ef | "G"g2f2 e2a2- | "A7"a2a2 gfe2 | "D"d4 d2 :|
